X:1
T:Jean-Joseph MOURET (1682-1738)
T:III sonata - Gigue
T:dalle 6 sonate per 2 flauti traversi
C:J.J. MOURET
%%score 1 2
L:1/8
Q:1/4=120
M:6/8
K:F
V:1 treble nm="fl.I" snm="I"
V:2 treble nm="fl.II" snm="II"
V:1
"^Gigue" fg | aga fab | (c'3 c')d'c' | bab gc'b | Ma2 g !breath!ff'e' | Md'2 c' f'2 e' | %6
 Md'2 c' f'2 e' | d'e'c' =b2 c' | !breath!d'3 ggf | Me2 d g2 f | Me2 d g2 f | edc =BAB | %12
 !breath!cGc dG"^?"d | ece fdf | gfe Md2 c | (c3 c) :: ga | bab gc'b | Ma2 f bc'd' | gab abg | %20
 ^f2 !breath!e dd'c' | Mb2 a d'2 c' | Mb2 a d'2 c' | bag M^fef | !breath!gdg ada | bgb c'ac' | %26
 d'c'b Ma2 g | (g3 !breath!g)c'b | a2 f b2 a | g2 f e2 f | c2 d e2 c | fc'b Ma2 g | c'2 b Ma2 g | %33
 c'ba Mgfg | agf Mede | fcf gcg | afa bgb | c'ba Mg2 f | !breath!ff'e' f'e'd' | c'f'e' f'e'd' | %40
 c'f'e' f'e'd' | c'ba gaf | Me2 d !breath!cc'b | Ma2 g c'2 b | Ma2 g c'2 b | agf Mede | %46
 !breath!fcf gcg | afa bgb | c'ba Mg2 f | (f3 f2) z :| %50
V:2
 z2 | z2 z2 fg | aga fba | g2 f e2 c | ffe d2 c | f2 e d2 c | f2 e d2 c | fga g2 c | Ggf Me2 d | %9
 cgf Me2 d | g2 f Me2 d | gfe Mdcd | edc MB2 G | cec dfd | edc G3 | (c3 c) :: z2 | z cd e2 c | %18
 f2 _e dcB | _e2 d cde | ddc B2 A | d2 c MB2 A | d2 c B2 A | G2 c dd'c' | bag ^f2 d | gbg ac'a | %26
 bag dcd | Ggf e2 c | ff'e' d'2 c' | M=b2 a gaf | Me2 d cc'b | Ma2 g c'2 b | a2 g c'2 b | %33
 agf Medc | c'ba Mgfg | agf e2 c | faf gbg | agf c3 | Ffg a2 b | afg a2 b | afg a2 b | agf e2 f | %42
 cc'b Ma2 e | fc'b Ma2 g | c'2 b Ma2 g | c'ba Mgfg | agf e2 c | faf gbg | agf cBc | (F3 F2) z :| %50

